!!!!SEGMENT: pl-gd--ee-1638--005-008_marenzio-luca--il-primo-libro-de-madrigali-spirituali-a-cinque-voci-quasi-vermiglia-rosa.krn
!!!cenid: 15xx:961
!!!COM: Marenzio, Luca
!!!COM-rismID: pe30003955
!!!CDT: ~1553-1599/08/22
!!!CNT: Italian
!!!GTL: Il Primo libro de madrigali spirituali a cinque voci
!!!OTL: Quasi vermiglia rosa
!!!OMV: 008
!!!PDT: 1588
!!!AGN:
!!!SMS-siglum: PL-GD
!!!SMS-shelfmark: Ee 1638
!!!SMS-shelfwork: 005-008 G
!!!SMS-variant:
!!!SMS-altvar:
!!!NIFC-rismSourceID: 990039269
!!!NIFC-islandoraID: pl-gd:57883
!!!URL-pdf-islandora: https://repozytorium.nifc.pl/islandora/object/pl-gd%3A57883/datastream/PDF/view
!!!URL-scan: https://polish.musicsources.pl/pl/lokalizacje/galeria/klocki-introligatorskie/655 @EN{Scan on Polish Music Sources Website} @PL{Skany w portalu Dziedzictwo Muzyki Polskiej w otwartym dostępie}
!!!ONB-nifc: UWAGA: zbiór na stronach: Canto: s. 666-677, Alto: s. 514-525, Tenore: s. 362-373, Bassus: s. 210-221, Quinto: s. 58-69. Uwaga: utwory podzielone wg tytułów w spisach treści dostępnych na końcu każdej księgi głosowej.
!!!AIN: 1 alto 1 bass 1 soprn 1 tenor 1 vox
!!!key: F
**kern	**text	**kern	**text	**kern	**text	**kern	**text	**kern	**text
*part5	*part5	*part4	*part4	*part3	*part3	*part2	*part2	*part1	*part1
*staff5	*staff5	*staff4	*staff4	*staff3	*staff3	*staff2	*staff2	*staff1	*staff1
*I"BASSO	*	*I"TENORE	*	*I"ALTO	*	*I"QVINTO	*	*I"CANTO	*
*mI"Basso	*	*mI"Tenore	*	*mI"Alto	*	*mI"Quinto	*	*mI"Soprano	*
*I'B	*	*I'T	*	*I'A	*	*I'V 5	*	*I'S	*
*ICvox	*	*ICvox	*	*ICvox	*	*ICvox	*	*ICvox	*
*Ibass	*	*Itenor	*	*Ialto	*	*Ivox	*	*Isoprn	*
*clefF4	*	*clefC4	*	*clefC3	*	*clefC1	*	*clefC1	*
*	*	*mclefGv2	*	*mclefG2	*	*mclefG2	*	*mclefG2	*
*k[b-]	*	*k[b-]	*	*k[b-]	*	*k[b-]	*	*k[b-]	*
*F:	*	*F:	*	*F:	*	*F:	*	*F:	*
*M2/1	*	*M2/1	*	*M2/1	*	*M2/1	*	*M2/1	*
*met(C)	*	*met(C)	*	*met(C)	*	*met(C)	*	*met(C)	*
=1-	=1-	=1-	=1-	=1-	=1-	=1-	=1-	=1-	=1-
!LO:MO:mod=!null:null	!	!	!	!	!	!	!	!	!
!LO:TX:b:i:t=QVaſi	!	!	!	!	!	!	!	!	!
!LO:TX:t=P:problem: podwójnie zapisany znak przykluczowy: BB- B-	!	!	!	!	!	!	!	!	!
!	!	!	!	!	!	!	!	!	!LO:MO:mod=Qua-
00r	.	1r	.	1r	.	4r	.	2g/	QVa-
!	!	!	!	!	!	!	!LO:MO:mod=Qua-	!	!
.	.	.	.	.	.	4g/	QVa-	.	.
.	.	.	.	.	.	4g/	-ſi	4b-\	-ſi
.	.	.	.	.	.	4a\	ver-	4cc\	ver-
!	!	!	!LO:MO:mod=Qua-	!	!	!	!	!	!
.	.	2G/	QVa-	4r	.	8b-\	-mi-	2.dd\	-mi-
.	.	.	.	.	.	8a\	.	.	.
!	!	!	!	!	!LO:MO:mod=Qua-	!	!	!	!
.	.	.	.	4d\	QVa-	8b-\	.	.	.
.	.	.	.	.	.	8cc\	.	.	.
.	.	4B-\	-ſi	4d\	-ſi	1dd\	.	.	.
.	.	4c\	ver-	4e\	ver-	.	.	8cc\	.
.	.	.	.	.	.	.	.	8b-\	.
=2-	=2-	=2-	=2-	=2-	=2-	=2-	=2-	=2-	=2-
.	.	2d\	-mi-	4f\	-mi-	.	.	2a\	.
.	.	.	.	4d\	-glia	.	.	.	.
.	.	2e-X\	-glia	2.g\	ro-	2cc\	-glia	2g/	-glia
.	.	1d	ro-	.	.	1dd	ro-	1a	ro-
.	.	.	.	8f#X\	.	.	.	.	.
.	.	.	.	8e\	.	.	.	.	.
!	!	!	!	!LO:SIC:s=2f#\:v	!	!	!	!	!
.	.	.	.	2f#X\	.	.	.	.	.
=3-	=3-	=3-	=3-	=3-	=3-	=3-	=3-	=3-	=3-
!	!	!	!	!	!	!	!	!LO:MO:mod=!null:null	!
!	!	!	!	!	!	!	!	!LO:N:acc=#	!
00r	.	2G/	-ſa	2g\	-ſa	2dd\	-ſa	2bn\	-ſa
.	.	2.c\	Hu-	2.e\	Hu-	2.g/	Hu-	2.cc\	Hu-
.	.	4F/	-mi-	4fny\	-mi-	4a\	-mi-	4cc\	-mi-
!	!	!	!LO:MO:mod=le, e in	!	!LO:MO:mod=le, e in	!	!LO:MO:mod=le, e in	!	!LO:MO:mod=le, e in
.	.	2F/	le e in	1f\	le e in	1a\	le e in	2.cc\	le e in
=4-	=4-	=4-	=4-	=4-	=4-	=4-	=4-	=4-	=4-
.	.	2F/	ſe	.	.	.	.	.	.
.	.	.	.	.	.	.	.	2cc\	ſe
.	.	2G/	na-	4e\	ſe	4g/	ſe	.	.
!	!	!	!	!LO:SIC:v:t=custos c#	!	!	!	!LO:SIC:v:t=custos a	!
.	.	.	.	4d\	na-	4f/	na-	4b-y\	na-
!	!	!	!	!LO:LB:g=original	!	!	!	!LO:LB:g=original	!
.	.	1A	-ſco-	4c#X/	-ſco-	4e/	-ſco-	1a	-ſco-
!	!	!	!	!	!	!LO:SIC:v:t=custos e	!	!	!
.	.	.	.	2d\	.	4d/	.	.	.
!	!	!	!	!	!	!LO:LB:g=original	!	!	!
.	.	.	.	.	.	2e/	.	.	.
!	!	!	!	!LO:SIC:s=4c#/:v	!	!	!	!	!
.	.	.	.	4c#X/	.	.	.	.	.
=5-	=5-	=5-	=5-	=5-	=5-	=5-	=5-	=5-	=5-
!	!	!LO:SIC:v:t=custos A	!	!	!	!	!	!	!
!	!	!	!LO:MO:mod=-sa,	!	!LO:MO:mod=-sa,	!	!LO:MO:mod=-sa,	!	!LO:MO:mod=-sa,
1r	.	1D	-ſa	1d	-ſa	1f#X	-ſa	1a	-ſa
!	!	!LO:LB:g=original	!	!	!	!	!	!	!
0D	Se-	0A	Se	0d	Se-	0a	Se-	0f#X	Se-
=6-	=6-	=6-	=6-	=6-	=6-	=6-	=6-	=6-	=6-
4GG/	-dea	2G/	dea	4d\	-dea	4b-\	-dea	4g/	-dea
4G\	la	.	.	4d\	la	4dd\	la	4b-\	la
4E-X\	bel-	2r	.	4g\	bel-	4ee-X\	bel-	4b-\	bel-
4BB-/	-la	.	.	4f\	-la	4dd\	-la	4b-\	-la
=7-	=7-	=7-	=7-	=7-	=7-	=7-	=7-	=7-	=7-
!	!LO:MO:mod=don-	!	!	!	!LO:MO:mod=don-	!	!LO:MO:mod=don-	!	!
2F\	dõ(n)-	0r	.	2f\	dõ(n)-	2cc\	dõ(n)-	2a\	don-
4Eny\	na in	.	.	4g\	na in	4cc\	na in	4g/	na in
2F\	at-	.	.	2f\	at-	2cc\	at-	2a\	at-
4G\	-ti	.	.	4d\	-ti	4b-\	-ti	4b-\	-ti
2F\	ſchi-	.	.	2f\	ſchi-	2a\	ſchi-	2cc\	ſchi-
=8-	=8-	=8-	=8-	=8-	=8-	=8-	=8-	=8-	=8-
!	!LO:MO:mod=-vi,	!	!	!	!LO:MO:mod=-vi,	!	!LO:MO:mod=-vi,	!	!LO:MO:mod=-vi,
1BB-	-ui	2r	.	1f	-ui	1b-	-ui	1dd	-ui
.	.	4B-\	E in	.	.	.	.	.	.
.	.	4B-\	pen-	.	.	.	.	.	.
4E-X\	E in	1B-	-ſier	2r	.	4g/	E in	2r	.
!LO:SIC:v:t=custos E-	!	!	!	!	!	!	!	!	!
!	!	!	!	!	!	!	!LO:MO:mod=pen-	!	!
4E-\	pen-	.	.	.	.	4g/	pẽ(n)-	.	.
!LO:LB:g=original	!	!	!	!	!	!	!	!	!
1E-\	-ſier	.	.	4e-X\	E in	1g\	-ſier	4b-\	E in
.	.	.	.	4e-\	pen-	.	.	4b-\	pen-
=9-	=9-	=9-	=9-	=9-	=9-	=9-	=9-	=9-	=9-
.	.	1G	ca-	2e-yX\	-ſier	.	.	2b-\	-ſier
1C	ca-	.	.	1e-	ca-	1g	ca-	1cc	ca-
.	.	2r	.	.	.	.	.	.	.
2GG/	ſti e	2G/	ſti e	2d\	ſti e	2g/	ſti e	1b-\	ſti e
=10-	=10-	=10-	=10-	=10-	=10-	=10-	=10-	=10-	=10-
!	!	!	!	!LO:SIC:v:t=custos c#	!	!	!	!	!
1BB-	di-	1D	di-	1d	di-	3.fny/	di-	.	.
.	.	.	.	.	.	6e/	.	2g/	di-
.	.	.	.	.	.	3d/	.	.	.
!	!	!	!	!LO:LB:g=original	!	!	!	!	!
!	!LO:MO:mod=-vi,	!	!LO:MO:mod=-vi,	!	!LO:MO:mod=-vi,	!	!LO:MO:mod=-vi,	!	!LO:MO:mod=-vi,
1AA	-ui	1A	-ui	1c#X	-ui	1e	-ui	0a	-ui
=11-	=11-	=11-	=11-	=11-	=11-	=11-	=11-	=11-	=11-
!	!LO:MO:mod=Quan-	!	!LO:MO:mod=Quan-	!	!	!	!	!	!
0D	Quã(n)-	2F/	quã(n)-	2r	.	1r	.	.	.
!	!	!	!	!	!LO:MO:mod=Quan-	!	!	!	!
.	.	2D/	-d'il	2f\	quã(n)-	.	.	.	.
!	!	!	!	!	!	!	!LO:MO:mod=Quan-	!	!
!	!	!	!LO:MO:mod=ciel,	!	!	!	!	!	!
.	.	1A	ciel	2d\	-d'il	2f/	quã(n)-	2r	.
!	!	!	!	!	!	!LO:SIC:v:t=custos dd	!	!LO:SIC:v:t=custos d	!
!	!	!	!	!	!	!	!	!	!LO:MO:mod=Quan-
.	.	.	.	2a\	ciel	2d/	-d'il	2fny/	quã(n)-
!	!	!	!	!	!	!LO:LB:g=original	!	!LO:LB:g=original	!
=12-	=12-	=12-	=12-	=12-	=12-	=12-	=12-	=12-	=12-
1BB-	-d'il	2f\	quan-	1r	.	2dd\	ciel	2d/	-d'il
.	.	2B-\	-d'il	.	.	2r	.	2dd\	ciel
!	!LO:MO:mod=ciel,	!	!	!	!	!	!	!	!
1B-	ciel	1d	ciel	4.f\	ri-	4.dd\	ri-	1r	.
.	.	.	.	8eny\	.	8cc\	.	.	.
.	.	.	.	8f\	.	8dd\	.	.	.
.	.	.	.	8e\	.	8cc\	.	.	.
.	.	.	.	8d\	.	8b-\	.	.	.
.	.	.	.	8cny\	.	8a\	.	.	.
=13-	=13-	=13-	=13-	=13-	=13-	=13-	=13-	=13-	=13-
!	!LO:MO:mod=quan-	!	!	!	!	!	!	!	!
1G	quã(n)-	2r	.	1B-	.	4.b-\	.	4.dd\	ri-
.	.	.	.	.	.	8a\	.	8cc\	.
.	.	4.d\	ri-	.	.	8b-\	.	8dd\	.
.	.	.	.	.	.	8a\	.	8cc\	.
.	.	.	.	.	.	8g/	.	8b-\	.
.	.	8c\	.	.	.	8f/	.	8a\	.
!	!	!	!	!	!LO:MO:mod=-se,	!	!	!	!
1.GG	-d'il	8d\	.	1B-	-ſe	4.g/	.	4.b-\	.
!	!	!LO:SIC:v:t=custos B-	!	!	!	!	!	!	!
.	.	8c\	.	.	.	.	.	.	.
!	!	!LO:LB:g=original	!	!	!	!	!	!	!
.	.	8B-\	.	.	.	.	.	.	.
.	.	8A\	.	.	.	8f/	.	8a\	.
.	.	1G/	.	.	.	8g/	.	8b-\	.
.	.	.	.	.	.	8f/	.	8a\	.
.	.	.	.	.	.	8g/	.	8g/	.
.	.	.	.	.	.	8a\	.	8f/	.
=14-	=14-	=14-	=14-	=14-	=14-	=14-	=14-	=14-	=14-
.	.	.	.	4.d\	ri-	4.b-\	.	1g	.
.	.	.	.	8c\	.	8a\	.	.	.
!	!	!	!LO:MO:mod=-se,	!	!	!	!	!	!
2G\	ciel	2F/	-ſe	8d\	.	8b-\	.	.	.
.	.	.	.	8c\	.	8a\	.	.	.
.	.	.	.	8d\	.	8b-\	.	.	.
.	.	.	.	8e\	.	8cc\	.	.	.
!	!	!	!	!	!	!	!	!	!LO:MO:mod=-se,
4.D/	ri-	1r	.	4.f\	.	1dd	.	1a	-ſe
8C/	.	.	.	8e\	.	.	.	.	.
8D/	.	.	.	8f\	.	.	.	.	.
8C/	.	.	.	8e\	.	.	.	.	.
8D/	.	.	.	8f\	.	.	.	.	.
!	!	!	!	!LO:SIC:v:t=custos f	!	!	!	!	!
8Eny\	.	.	.	8g\	.	.	.	.	.
!	!	!	!	!LO:LB:g=original	!	!	!	!	!
=15-	=15-	=15-	=15-	=15-	=15-	=15-	=15-	=15-	=15-
!	!	!	!	!	!	!	!LO:MO:mod=-se,	!	!
4.F\	.	0r	.	1f	.	2cc\	-ſe	4.a\	ri-
8E\	.	.	.	.	.	.	.	8g\	.
8F\	.	.	.	.	.	4.cc\	ri-	8a\	.
!LO:SIC:v:t=custos F	!	!	!	!	!	!	!	!	!
8E\	.	.	.	.	.	.	.	8g\	.
!LO:LB:g=original	!	!	!	!	!	!	!	!	!
8F\	.	.	.	.	.	.	.	8a\	.
8G\	.	.	.	.	.	8b-\	.	8b-\	.
!	!	!	!	!	!LO:MO:mod=-se,	!LO:SIC:v:t=custos a	!	!	!
1A	.	.	.	1e	-ſe	1a	.	4cc\	.
.	.	.	.	.	.	.	.	2dd\	.
!	!	!	!	!	!	!	!	!LO:SIC:v:t=custos dd	!
.	.	.	.	.	.	.	.	4cc#X\	.
!	!	!	!	!	!	!LO:LB:g=original	!	!LO:LB:g=original	!
=16-	=16-	=16-	=16-	=16-	=16-	=16-	=16-	=16-	=16-
!	!LO:MO:mod=-se,	!	!	!	!	!	!LO:MO:mod=-se,	!	!LO:MO:mod=-se,
1D	-ſe	2r	.	4r	.	2a\	-ſe	2dd\	-ſe
.	.	.	.	4d\	e	.	.	.	.
!	!	!	!	!	!LO:MO:mod=fu,	!	!	!	!
.	.	2d\	e	2f\	fu	4r	.	4r	.
.	.	.	.	.	.	4a\	e	4d/	e
!	!	!	!	!	!	!	!	!	!LO:MO:mod=fu,
0r	.	2B-\	fu	4r	.	2b-\	fu	1f	fu
.	.	.	.	4d\	e	.	.	.	.
.	.	2F/	mi-	4f\	fu	2a\	mi-	.	.
.	.	.	.	4c/	mi-	.	.	.	.
=17-	=17-	=17-	=17-	=17-	=17-	=17-	=17-	=17-	=17-
.	.	4c\	-ra-	4e\	-ra-	4g/	-ra-	1r	.
.	.	4A/	-bil	4f\	-bil	4a\	-bil	.	.
.	.	2G/	co-	2g\	co-	2b-\	co-	.	.
!	!	!	!	!	!	!	!LO:MO:mod=-sa,	!	!
!	!	!	!LO:MO:mod=-sa,	!	!LO:MO:mod=-sa,	!	!	!	!
4r	.	2F/	-ſa	1c	-ſa	2a\	-ſa	4r	.
4F\	e	.	.	.	.	.	.	4a\	e
2A\	fu	4r	.	.	.	4r	.	2ccny\	fu
.	.	4A/	e	.	.	4a\	e	.	.
=18-	=18-	=18-	=18-	=18-	=18-	=18-	=18-	=18-	=18-
4r	.	8F/	fu	2r	.	1cc	fu	4r	.
.	.	8G/	.	.	.	.	.	.	.
4F\	mi-	8A\	.	.	.	.	.	4a\	mi-
.	.	8B-\	.	.	.	.	.	.	.
4E\	-ra-	2c\	.	2e\	mi-	.	.	4g/	-ra-
4F\	-bil	.	.	.	.	.	.	4a\	-bil
2G\	co-	2r	.	4d\	-ra-	2r	.	2b-\	co-
.	.	.	.	4e\	-bil	.	.	.	.
!	!LO:MO:mod=-sa,	!	!	!	!	!	!	!	!LO:MO:mod=-sa,
2F\	-ſa	4r	.	4f\	co-	4r	.	2a\	-ſa
!	!	!LO:SIC:v:t=custos G	!	!	!LO:MO:mod=-sa,	!	!	!	!
.	.	4A/	mi-	4c/	-ſa	4cc\	mi-	.	.
!	!	!LO:LB:g=original	!	!	!	!	!	!	!
=19-	=19-	=19-	=19-	=19-	=19-	=19-	=19-	=19-	=19-
!	!	!	!	!	!	!LO:MO:mod=!null:null	!	!	!
!	!	!	!	!	!	!LO:N:acc=#	!	!	!
00r	.	4G/	-ra-	4r	.	4bn\	-ra-	4r	.
*	*	*	*	*	*ij	*	*	*	*
.	.	4A/	-bil	4e\	mi-	4cc\	-bil	4a\	mi-
.	.	2B-\	co-	4d\	-ra-	1dd	co-	4f/	-ra-
.	.	.	.	4e\	-bil	.	.	4g/	-bil
!	!	!	!LO:MO:mod=-sa,	!	!	!	!	!	!
.	.	1A	-ſa	2f\	co-	.	.	2a\	co-
!	!	!	!	!	!LO:MO:mod=-sa,	!	!LO:MO:mod=-sa,	!	!LO:MO:mod=-sa,
.	.	.	.	2e\	-ſa	2cc#X\	-ſa	2a\	-ſa
*	*	*	*	*	*Xij	*	*	*	*
=20-	=20-	=20-	=20-	=20-	=20-	=20-	=20-	=20-	=20-
!	!	!	!LO:MO:mod=Ch'io	!	!LO:MO:mod=Ch'io	!	!LO:MO:mod=Ch'io	!	!LO:MO:mod=Ch'io
.	.	4D/	ch'io	4f\	ch'io	4dd\	ch'io	4a\	ch'io
!	!	!	!	!LO:SIC:v:t=custos f	!	!	!	!	!
.	.	2G/	vi-	2d\	vi-	2b-y\	vi-	2g/	vi-
!	!	!	!	!LO:LB:g=original	!	!	!	!	!
.	.	4F/	-di	4f\	-di	4ccny\	-di	4a\	-di
.	.	4B-\	nel	4f\	nel	4dd\	nel	4b-\	nel
.	.	4B-\	bel	4f\	bel	4dd\	bel	4b-\	bel
!	!	!	!	!	!	!	!	!LO:SIC:v:t=custos a	!
.	.	1B-\	ſe-	1f\	ſe-	1dd\	ſe-	1b-\	ſe-
!	!	!	!	!	!	!	!	!LO:LB:g=original	!
=21-	=21-	=21-	=21-	=21-	=21-	=21-	=21-	=21-	=21-
00r	.	.	.	.	.	.	.	.	.
!	!	!	!	!	!	!LO:SIC:v:t=custos c	!	!	!
.	.	2F/	-no	2f\	-no	2cc\	-no	2a\	-no
!	!	!	!	!	!	!LO:LB:g=original	!	!	!
!	!	!	!	!	!	!	!LO:MO:mod=Lam-	!	!
.	.	4.c\	Lam-	4.e\	Lam-	4.cc\	Lã(m)-	4.g/	Lam-
.	.	8G/	-peg-	8d\	-peg-	8b-\	-peg-	8g/	-peg-
.	.	4A/	-giar	4c/	-giar	4a\	-giar	4e/	-giar
!	!	!	!LO:MO:mod=un	!	!LO:MO:mod=un	!	!LO:MO:mod=un	!	!LO:MO:mod=un
.	.	2F/	vn	2f\	vn	2a\	vn	2cc\	vn
=22-	=22-	=22-	=22-	=22-	=22-	=22-	=22-	=22-	=22-
.	.	.	.	.	.	.	.	.	.
.	.	4A/	ſe-	4c/	ſe-	4e/	ſe-	4cc\	ſe-
!	!	!	!	!	!	!	!	!LO:MO:mod=!null:null	!
!	!	!	!	!	!	!	!	!LO:N:acc=#	!
.	.	2G/	-re-	2d\	-re-	2g/	-re-	2bn\	-re-
!	!	!	!LO:MO:mod=-no,	!	!LO:MO:mod=-no,	!	!LO:MO:mod=-no,	!	!LO:MO:mod=-no,
.	.	1C	-no	0e	-no	1g	-no	1cc	-no
=23-	=23-	=23-	=23-	=23-	=23-	=23-	=23-	=23-	=23-
!	!LO:MO:mod=Che	!	!LO:MO:mod=Che	!	!	!	!	!	!
1C	che	1G	che	.	.	2r	.	1r	.
!	!	!	!	!	!	!	!LO:MO:mod=Che	!	!
.	.	.	.	.	.	1g	che	.	.
!	!	!LO:SIC:v:t=custos F	!	!	!	!	!	!	!
!	!	!	!	!	!	!	!	!	!LO:MO:mod=Che
1GG	Dio	1B-	Dio	2r	.	.	.	1dd	che
!	!	!	!	!	!LO:MO:mod=Che	!	!	!	!
.	.	.	.	1d\	che	2b-\	Dio	.	.
!	!	!LO:LB:g=original	!	!	!	!	!	!	!
=24-	=24-	=24-	=24-	=24-	=24-	=24-	=24-	=24-	=24-
!	!	!	!	!	!	!	!	!	!LO:MO:mod=Dio,
2D/	di-	2r	.	.	.	2f/	di-	1a	Dio
!	!	!	!	!	!LO:MO:mod=Dio,	!	!	!	!
4D/	-re-	2F/	di-	2A/	Dio	4f/	-re-	.	.
4D/	ſte in	.	.	.	.	4f/	ſte in	.	.
!LO:SIC:v:t=custos BB-	!	!	!	!	!	!	!	!	!
2C/	eſ-	4G/	-re-	1r	.	2e-X/	eſ-	2r	.
.	.	4A/	ſte in	.	.	.	.	.	.
!LO:LB:g=original	!	!	!	!	!	!	!	!	!
*	*	*	*	*	*	*	*	*	*ij
!	!LO:MO:mod=-so,	!	!	!	!	!	!	!	!
!	!	!	!	!	!	!	!LO:MO:mod=-so,	!	!
2BB-/	-ſo	1B-\	eſ-	.	.	2d/	-ſo	1b-y\	che
=25-	=25-	=25-	=25-	=25-	=25-	=25-	=25-	=25-	=25-
*	*	*	*	*	*ij	*	*	*	*
1B-	che	.	.	1.f	che	1dd	che	.	.
!	!	!	!LO:MO:mod=-so,	!	!	!	!	!	!
.	.	2d\	-ſo	.	.	.	.	2f/	Dio
2F\	Dio	4r	.	.	.	1a	Dio	4r	.
*	*	*	*ij	*	*	*	*	*	*Xij
.	.	4A/	che	.	.	.	.	4cc\	di-
2r	.	4A/	Dio	4e\	Dio	.	.	4cc\	-re-
*	*	*	*	*	*Xij	*	*	*	*
.	.	4A/	di-	4c/	di-	.	.	4cc\	ſte in
=26-	=26-	=26-	=26-	=26-	=26-	=26-	=26-	=26-	=26-
2r	.	2G/	-re-	4d\	-re-	2r	.	2b-\	eſ-
!	!	!	!	!LO:SIC:v:t=custos f	!	!	!	!	!
.	.	.	.	4e\	ſte in	.	.	.	.
!	!	!	!	!LO:LB:g=original	!	!	!	!	!
!	!	!	!LO:MO:mod=-ste,	!	!	!	!	!	!LO:MO:mod=-so,
4r	.	2F/	-ſte	2f\	eſ-	4r	.	1a	-ſo
4D/	di-	.	.	.	.	4f/	di-	.	.
!	!	!	!	!	!LO:MO:mod=-so,	!	!	!	!
4D/	-re-	4r	.	2d\	-ſo	4f/	-re-	.	.
4D/	ſte in	4F/	che	.	.	4f/	ſte in	.	.
2C/	eſ-	4G/	Dio	2r	.	2e-X/	eſ-	2r	.
.	.	4A/	di-	.	.	.	.	.	.
=27-	=27-	=27-	=27-	=27-	=27-	=27-	=27-	=27-	=27-
!	!LO:MO:mod=-so, e	!	!	!	!	!	!	!	!
!	!	!	!	!	!	!	!LO:MO:mod=-so,	!	!
1BB-	ſo e	2B-\	-re-	1f	e	1d	-ſo	1b-	e
.	.	2F/	ſte	.	.	.	.	.	.
*	*	*	*Xij	*	*	*	*	*	*
!	!	!	!	!	!	!	!	!LO:SIC:v:t=custos b-	!
1.E-X	ben	1.G	e ben	1.e-X	ben	2r	.	1b-	ben
!	!	!	!	!	!	!LO:SIC:v:t=custos g	!	!	!
.	.	.	.	.	.	2g/	e	.	.
!	!	!	!	!	!	!LO:LB:g=original	!	!LO:LB:g=original	!
=28-	=28-	=28-	=28-	=28-	=28-	=28-	=28-	=28-	=28-
.	.	.	.	.	.	2g/	ben	2b-\	fu
2C/	fu	2G/	fu	2e-yX\	fu	1g	fu	1cc	Di-
!	!	!LO:SIC:v:t=custos G	!	!	!	!	!	!	!
0GG	Di-	0G	Di-	0d	Di-	.	.	.	.
!	!	!	!	!	!	!	!	!LO:MO:mod=!null:null	!
!	!	!	!	!	!	!	!	!LO:N:acc=#	!
.	.	.	.	.	.	2.g/	Di-	4bn\	.
.	.	.	.	.	.	.	.	4a\	.
!	!	!LO:LB:g=original	!	!	!	!	!	!	!
=29-	=29-	=29-	=29-	=29-	=29-	=29-	=29-	=29-	=29-
!	!	!	!	!	!	!	!	!LO:MO:mod=!null:null	!
!	!	!	!	!	!	!	!	!LO:N:acc=#	!
.	.	.	.	.	.	.	.	1bn	.
.	.	.	.	.	.	8f/	.	.	.
.	.	.	.	.	.	8eny/	.	.	.
.	.	.	.	.	.	2d/	.	.	.
!	!LO:MO:mod=-o,	!	!LO:MO:mod=-o,	!	!LO:MO:mod=-o,	!	!LO:MO:mod=-o,	!	!LO:MO:mod=-o,
1C	-o	1G	-o	1c	-o	1e	-o	1cc	-o
=30-	=30-	=30-	=30-	=30-	=30-	=30-	=30-	=30-	=30-
00r	.	4r	.	4r	.	4r	.	4r	.
!	!	!	!LO:MO:mod=Che	!	!LO:MO:mod=Che	!	!LO:MO:mod=Che	!	!LO:MO:mod=Che
.	.	2B-\	che	2f\	che	2dd\	che	2b-y\	che
.	.	4F/	ſcen-	4f\	ſcen-	4cc\	ſcen-	4a\	ſcen-
!	!	!	!	!	!	!	!LO:MO:mod=-den-	!	!
.	.	2G/	-den-	2d\	-den-	2b-\	-dẽ(n)-	2g/	-den-
.	.	4D/	-do	4d\	-do	4a\	-do	4f#X/	-do
.	.	4E-X/	nel	4B-/	nel	4g/	nel	4g/	nel
=31-	=31-	=31-	=31-	=31-	=31-	=31-	=31-	=31-	=31-
!	!	!	!LO:MO:mod=grem-	!	!LO:MO:mod=grem-	!	!LO:MO:mod=grem-	!	!LO:MO:mod=grem-
.	.	2D/	grẽ(m)-	2d\	grẽ(m)-	4f/	grẽ(m)-	4a\	grẽ(m)-
!	!	!	!	!	!	!	!LO:MO:mod=-bo a	!	!LO:MO:mod=-bo a
.	.	.	.	.	.	4a\	bo à	4fny/	bo à
!	!	!	!LO:MO:mod=-bo a	!	!LO:MO:mod=-bo a	!	!	!	!
.	.	2F/	bo à	2c/	-bo à	1a	lei	8f/	lei
.	.	.	.	.	.	.	.	8g/	.
.	.	.	.	.	.	.	.	8a\	.
.	.	.	.	.	.	.	.	8b-\	.
.	.	2F/	lei	4A/	lei	.	.	2cc\	.
!	!	!	!	!	!LO:MO:mod=s'u-	!	!	!	!
.	.	.	.	4A/	s'v-	.	.	.	.
!	!	!	!LO:MO:mod=s'u-	!	!	!	!LO:MO:mod=s'u-	!	!LO:MO:mod=s'u-
.	.	2G/	s'v-	2.d\	-ni-	2g/	s'v-	8b-\	s'v-
.	.	.	.	.	.	.	.	8cc\	.
.	.	.	.	.	.	.	.	4dd\	.
=32-	=32-	=32-	=32-	=32-	=32-	=32-	=32-	=32-	=32-
!	!	!	!	!	!	!	!	!LO:SIC:v:t=custos a	!
2r	.	1A	-ni-	.	.	1e	-ni-	1a	-ni-
.	.	.	.	8c#X/	.	.	.	.	.
!	!	!	!	!LO:SIC:v:t=custos c#	!	!	!	!	!
!	!	!	!	!LO:MO:mod=!null:null	!	!	!	!	!
!	!	!	!	!LO:N:acc=#	!	!	!	!	!
.	.	.	.	8Bn/	.	.	.	.	.
!	!	!	!	!LO:LB:g=original	!	!	!	!	!
!	!	!	!	!LO:SIC:s=2c#/:v	!	!	!	!	!
2AA/	e	.	.	2c#X/	.	.	.	.	.
!	!	!	!	!	!	!	!	!LO:LB:g=original	!
!	!	!	!LO:MO:mod=-o,	!	!LO:MO:mod=-o,	!	!LO:MO:mod=-o,	!	!LO:MO:mod=-o,
1.D	ben	2A/	-o	2d\	-o	2f/	-o	2a\	-o
.	.	2d\	e	2A/	e	2a\	e	2f/	e
=33-	=33-	=33-	=33-	=33-	=33-	=33-	=33-	=33-	=33-
.	.	2A/	ben	2d\	ben	4f/	ben	2a\	ben
.	.	.	.	.	.	4f/	fu	.	.
2BB-/	fu	2d\	fu	2f\	fu	1b-	Di-	2b-\	fu
0FF	Di-	0c	Di-	0f	Di-	.	.	0cc	Di-
.	.	.	.	.	.	4a\	.	.	.
!	!	!	!	!	!	!LO:SIC:v:t=custos a	!	!	!
.	.	.	.	.	.	4g/	.	.	.
!	!	!	!	!	!	!LO:LB:g=original	!	!	!
=34-	=34-	=34-	=34-	=34-	=34-	=34-	=34-	=34-	=34-
.	.	.	.	.	.	1a	.	.	.
!	!LO:MO:mod=-o,	!	!LO:MO:mod=-o,	!	!LO:MO:mod=-o,	!	!LO:MO:mod=-o,	!	!LO:MO:mod=-o,
4BB-/	-o	4B-\	-o	4f\	-o	2b-\	-o	2dd\	-o
!LO:SIC:v:t=custos F	!	!	!	!	!	!	!	!	!
!	!LO:MO:mod=Che	!	!	!	!	!	!	!	!
2B-\	che	2d\	che	2f\	che	.	.	.	.
.	.	.	.	.	.	2r	.	2r	.
!LO:LB:g=original	!	!LO:SIC:v:t=custos B-	!	!	!	!	!	!	!
!	!	!	!	!	!LO:MO:mod=scen-	!	!	!	!
4F\	ſcen-	4c\	ſcen-	4f\	ſen-	.	.	.	.
!	!	!LO:LB:g=original	!	!	!	!	!	!	!
=35-	=35-	=35-	=35-	=35-	=35-	=35-	=35-	=35-	=35-
2G\	-den-	2B-\	-den-	2d\	-den-	1r	.	1r	.
4D/	-do	4A/	-do	4d\	-do	.	.	.	.
4E-X\	nel	4G/	nel	4cny/	nel	.	.	.	.
!	!LO:MO:mod=grem-	!	!	!	!	!	!	!	!
2D/	grẽ(m)-	2A/	grem-	1d	grem-	4r	.	4r	.
!	!	!	!	!	!	!	!LO:MO:mod=Che	!	!
.	.	.	.	.	.	2dd\	che	2ff\	Che
!	!LO:MO:mod=-bo a	!	!LO:MO:mod=-bo a	!	!	!	!	!	!
2BB-/	bo à	2B-\	bo à	.	.	.	.	.	.
.	.	.	.	.	.	4cc\	ſcen-	4ee\	ſcen-
=36-	=36-	=36-	=36-	=36-	=36-	=36-	=36-	=36-	=36-
!	!	!	!	!	!LO:MO:mod=-bo a	!	!	!	!
2BB-/	lei	1.d	lei	1G	bo à	2b-\	-den-	2dd\	-den-
!	!LO:MO:mod=s'u-	!	!	!	!	!	!	!	!
2C/	s'v-	.	.	.	.	4a\	-do	4cc\	-do
.	.	.	.	.	.	4g/	nel	4b-\	nel
0.D	-ni-	.	.	1d	lei	2f/	grem-	2a\	grem-
!	!	!	!	!	!	!	!LO:MO:mod=-bo a	!	!LO:MO:mod=-bo a
.	.	4c\	.	.	.	2a\	bo à	2f/	bo à
.	.	4B-\	.	.	.	.	.	.	.
=37-	=37-	=37-	=37-	=37-	=37-	=37-	=37-	=37-	=37-
!	!	!	!	!	!LO:MO:mod=s'u-	!	!	!	!
.	.	2A/	.	1d	s'v-	4a\	lei	2f#X/	lei
!	!	!	!	!	!	!	!LO:MO:mod=s'u-	!	!
.	.	.	.	.	.	4a\	s'v-	.	.
!	!	!	!LO:MO:mod=s'u-	!	!	!	!	!	!LO:MO:mod=s'u-
.	.	2B-\	s'v-	.	.	2.g/	-ni-	2g/	s'v-
.	.	1A	-ni-	1d	-ni-	.	.	1a	-ni-
!	!	!	!	!	!	!LO:SIC:s=8f#/:v	!	!	!
.	.	.	.	.	.	8f/	.	.	.
.	.	.	.	.	.	8e/	.	.	.
!	!	!	!	!	!	!LO:SIC:s=2f#/:v	!	!	!
.	.	.	.	.	.	2f#X/	.	.	.
=38-	=38-	=38-	=38-	=38-	=38-	=38-	=38-	=38-	=38-
!	!	!	!	!	!	!	!	!LO:MO:mod=!null:null	!
!	!	!	!	!	!	!	!	!LO:N:acc=#	!
00GG	-o.	00G	-o.	00d	-o.	00g	-o.	00bn	-o.
==	==	==	==	==	==	==	==	==	==
*-	*-	*-	*-	*-	*-	*-	*-	*-	*-
!!!system-decoration: [(s1,s2,s3,s4,s5)]
!!!filter-modern: tie -s | humtr -p | sic -sq | shed -e "s/LO:DY:(a|b|rj)/LO:dy:$1/L" | shed -e "s/TX(.*):t=P:/tx$1:t=P:/LG" | modori -m | autostem -r | shed -e "s/yy//" | shed -k -e "s/\(y([^y])/($1/" | shed -e "s/-//B" | shed -e "s/^(\d+[\/\\]right)/$1yy/I; s/^(\d+[\/\\]left)/$1yy/I" | shed -e "s/^(X?)rep$/$1REP/I" | shed -k -e "s/[<>]//g" | shed -e "s/^custos:/Xcustos:/I" | shed -k -e "s/:TUP:/:tup:/L" | shed -k -e "s/r[a-gA-G]+/r/D" | rid -li
!!!ENC: Mateusz Solarz
!!!END: 2022-06-29
!!!ENC: Natalia Wrzos
!!!END: 2022-07-15
!!!EED-modern: Antoni Szymański
!!!END-modern: 2022-08-07
